X:116
T:Quadrille
S:John Moore's Book 2
Z:Transcribed by Steve Mansfield 05/2021
%%VWML: Moore2-4494-p90-0
F:http://www.vwml.org/record/Moore2/4494/p90
M:2/4
L:1/8
K:C
(c/d/) | e>fd>e | cage | Gcce | Gccd | 
e>fd>e | cage | Gc e/d/c/d/ | ec c ||
a | gcca | gcca | gcec | defa | 
gcca | gcca | gcec | defg :| 

